docs/_includes/icons/share-alt-round.svg

<svg viewBox="0 0 17 19" xmlns="http://www.w3.org/2000/svg"><path d="m16.417 9.583a7.917 7.917 0 1 1 -7.917-7.917 7.917 7.917 0 0 1 7.917 7.917m-4.102-1.837a.317.317 0 0 0 -.317-.317h-2.126v.792h1.651v5.591h-5.673v-5.591h1.647v-.792h-2.122a.317.317 0 0 0 -.317.317v6.541a.317.317 0 0 0 .317.317h6.623a.317.317 0 0 0 .317-.317zm-5.675-1.986a.396.396 0 1 0 .56.56l1.089-1.09v5.135a.396.396 0 1 0 .792 0v-5.135l1.089 1.09a.396.396 0 1 0 .56-.56l-1.765-1.765a.396.396 0 0 0 -.56 0z"/></svg>

<svg xmlns="http://www.w3.org/2000/svg" viewBox="0 0 17 19" class="cf-icon-svg cf-icon-svg__share-alt-round"><path d="M16.417 9.583A7.917 7.917 0 1 1 8.5 1.666a7.917 7.917 0 0 1 7.917 7.917m-4.102-1.837a.317.317 0 0 0-.317-.317H9.872v.792h1.651v5.591H5.85V8.221h1.647v-.792H5.375a.317.317 0 0 0-.317.317v6.541a.317.317 0 0 0 .317.317h6.623a.317.317 0 0 0 .317-.317zM6.64 5.76a.396.396 0 1 0 .56.56l1.089-1.09v5.135a.396.396 0 1 0 .792 0V5.23l1.089 1.09a.396.396 0 1 0 .56-.56L8.965 3.995a.396.396 0 0 0-.56 0z"/></svg>
